16x16/panel/gpm-brightness-lcd-invalid.svg

<svg height="16" width="16" xmlns="http://www.w3.org/2000/svg"><path d="m8 .721-2.19 2.28h-2.81v2.81l-2.28 2.189 2.28 2.22v2.78h2.81l2.19 2.279 2.221-2.279h2.78v-2.779l2.278-2.22-2.279-2.001v-3h-2.779zm0 3.28a3.999 3.999 0 1 1 0 7.999c-2.21 0-4-1.79-4-4s1.79-4 4-4z" fill="#bebebe" opacity=".3"/><path d="m7 5v4h2v-4zm0 5v1h2v-1z" fill="#5294e2"/></svg>

<svg height="16" width="16" xmlns="http://www.w3.org/2000/svg">
    <path d="m8 .721-2.19 2.28H3v2.81L.72 8 3 10.22V13h2.81L8 15.279 10.221 13h2.78v-2.779l2.278-2.22L13 6V3h-2.779zm0 3.28A3.999 3.999 0 1 1 8 12c-2.21 0-4-1.79-4-4s1.79-4 4-4z" fill="#bebebe" opacity=".3"/>
    <path d="M7 5v4h2V5zm0 5v1h2v-1z" fill="#00caff"/>
</svg>
